X: 1
T:Flowers of Edinburgh
M:2/2
C:
S:Bacon (CJS-'CD Tunes)
N:
A:Bledington
O:English
R:Reel
%:
%:
%P:A/2.(AB)$^4$A
P:A.(AB)4A
L:1/8
K:G
Q:1/2=100
P:A
D2|G2 G2 B2 B2|d2 ef   g2 e2|dcBA  GFGA|B2 G2 E2 \
D2|G2 G2 B2 B2|d2 ef   g2 e2|dcBA  GFGA|B2 G2 G2||\
P:B
zf|g2 g2 gbag|f2 f2   fagf|e2 ef gfed|B2 e2 e4|\
dcBc  d2 d2|{f}edef g2 e2|dcba  GFGA|B2 G2 G2||
